16x16/apps/freetube-bin.svg

<svg xmlns="http://www.w3.org/2000/svg" width="16" height="16" version="1">
 <path style="fill:#f4f4f7" d="M 1.2,-5.0000003e-8 C 0.5352,-5.0000003e-8 0,0.53519995 0,1.1999999 V 4.8 11.2 14.8 C 0,15.4648 0.5352,16 1.2,16 H 4.8 8.560156 11.2 C 13.8592,16 16,13.8592 16,11.2 V 9.120312 4.8 1.1999999 C 16,0.53519995 15.4648,-5.0000003e-8 14.8,-5.0000003e-8 H 11.2 4.8 Z"/>
 <path style="fill:#f04242" d="M 3.75,3 C 3.3345,3 3,3.3185714 3,3.7142857 V 11.214286 C 3,12.285714 4.5,13 5.25,13 H 6 V 12.285714 11.214286 3.7142857 C 6,3.3185714 5.6655,3 5.25,3 Z"/>
 <path style="fill:#f04242" d="M 7,5.25 C 7,5.6655 7.2816842,6 7.6315789,6 H 11.421053 C 12.368421,6 13,4.5 13,3.75 V 3 H 12.368421 11.421053 7.6315789 C 7.2816842,3 7,3.3345 7,3.75 Z"/>
 <path style="fill:#14a4df" d="M 7.3108881,7 A 0.30383907,0.26858172 0 0 0 7.0000002,7.2688537 v 1.7314859 1.7314854 a 0.30383907,0.26858172 0 0 0 0.4555639,0.232218 L 9.1519191,10.0983 10.848275,9.2325573 a 0.30383907,0.26858172 0 0 0 0,-0.4649987 L 9.1519191,7.9018157 7.4555641,7.0360727 A 0.30383907,0.26858172 0 0 0 7.3108881,7 Z"/>
</svg>

<svg xmlns="http://www.w3.org/2000/svg" width="16" height="16" version="1"><path style="fill:#f4f4f7" d="M1.2 0C.535 0 0 .535 0 1.2v13.6c0 .665.535 1.2 1.2 1.2h10c2.66 0 4.8-2.14 4.8-4.8v-10c0-.665-.535-1.2-1.2-1.2h-10z"/><path style="fill:#f04242" d="M3.75 3c-.416 0-.75.319-.75.714v7.5C3 12.286 4.5 13 5.25 13H6V3.714C6 3.32 5.665 3 5.25 3zM7 5.25c0 .415.282.75.632.75h3.79C12.367 6 13 4.5 13 3.75V3H7.631C7.282 3 7 3.334 7 3.75z"/><path style="fill:#14a4df" d="M7.31 7a.304.269 0 0 0-.31.269v3.463a.304.269 0 0 0 .456.232l1.696-.866 1.696-.865a.304.269 0 0 0 0-.465l-1.696-.866-1.696-.866A.304.269 0 0 0 7.31 7z"/></svg>
